X:1
T:Wise Men, 87.87 D
T:Wise Men, 87.87 D
T:Berthold Tours, 1881
T:Public Domain Courtesy of the Cyber Hymnal™
C:Berthold Tours, 1881
Z:Public Domain
Z:Courtesy of the Cyber Hymnal™
%%score ( 1 2 ) ( 3 4 )
L:1/8
Q:1/4=110
M:4/4
K:Eb
V:1 treble 
V:2 treble 
V:3 bass 
V:4 bass 
V:1
 [EB]2 [EG]2 [DF]2 E2 | [EB]2 [EG]2 [DG]2 [DF]2 | E2 [DF]2 [EG]2 [EG]2 | [EB]2 [E=A]2 [DB]4 | %4
 [Dd]2 B2 [^F=A]2 G2 | [=Ed]2 [EB]2 [E=A]2 [EG]2 | F2 [^CG]2 [DB]2 [=EB]2 | [Fd]2 [Ec]2 [DB]4 | %8
 [Dc]2 [DA]2 [DG]2 [DF]2 | [Dc]2 [DA]2 [DG]2 [DF]2 | [_DE]2 [DF]2 [DA]2 [DG]2 | %11
 [_DB]2 [DE]2 [Cc]4 | [Ae]2 [Ec]2 [EB]2 [EA]2 | [Ec]2 [CA]2 [CG]2 [CF]2 | [EB]2 E2 [EG]2 [EF]2 | %15
 [DG]2 [DF]2 E4 |] %16
V:2
 x6 E2 | x8 | E2 x6 | x8 | x2 (D=E) x G2 x | x8 | F2 x6 | x8 | x8 | x8 | x8 | x8 | x8 | x8 | %14
 x2 E2 x4 | x4 E4 |] %16
V:3
 [E,G,]2 [G,B,]2 [A,B,]2 [G,B,]2 | [E,G,]2 [G,B,]2 [A,_C]2 [A,C]2 | %2
 [G,B,]2 [F,A,]2 [E,G,]2 [D,G,]2 | [C,C]2 [F,C]2 [B,,F,B,]4 | [G,B,]2 [G,D]2 [D,C]2 [G,B,]2 | %5
 [C,B,]2 (G,=A,) [C,B,]2 [C,B,]2 | [F,=A,]2 [E,G,]2 [B,,F,]2 [G,B,]2 | %7
 (B,G,) [F,,F,=A,]2 [B,,B,]4 | [B,,A,]2 [B,,F,]2 [B,,B,]2 [B,,A,]2 | %9
 [B,,F,]2 [B,,C]2 [B,,B,]2 [B,,A,]2 | [E,G,]2 [E,A,]2 [E,C]2 [E,B,]2 | [E,A,]2 [E,G,]2 A,4 | %12
 [F,C]2 [F,E]2 [F,D]2 [F,C]2 | [A,,F,]2 [A,,C]2 [A,,B,]2 [A,,A,]2 | %14
 [B,,G,]2 [C,G,]2 [F,,=A,]2 [F,A,]2 | [B,,B,]2 [B,,A,]2 [E,G,]4 |] %16
V:4
 x8 | x8 | x8 | x8 | x8 | x2 C,2 x4 | x8 | F,2 x6 | x8 | x8 | x8 | x4 (A,2 G,2) | x8 | x8 | x8 | %15
 x8 |] %16

